X: 2353
T: Báidín Fheilimí
R: slide
M: 12/8
K: Dmajor
V:1
A2D F>ED ABc d2B|A2D F>ED GEE E3|
V:2
F2A d>BA FGA F2D|F2A d>BA dBB B3|
V:1
A2D F>ED ABc d2B|d2B A>BG FDD D2 A||
V:2
F2A d>BA FGA F2D|A2G F>GB AFF F2D||
V:1
d2e fed g2e f>ed|B2d d>cB A>BG F>ED|
V:2
A2B dBA d2B d>BA|d2B B>cd F>GB AGF|
V:1
d2e f2d g2e f>ed|B2d ABG FDD D3||
V:2
A2B d2A d2B d>BA|d2B FGB AFF F3||

